X:693
T:Reel 693
M:4/4
K:Dmix
L:1/8
dB|AD (3FED ADFD|ECEG cBcA|AD (3FED ADFD||EC (3EDC D2:||2EFGE FDAG|Add^c defd|cdef gfec| (3def  (3efe dBcd|cAGE D2FG|Adde fedc|AG (3FEF GECE|DFEG FAGB|Ad^ce d2|
